icons/delete-bin-4-line.svg

<svg xmlns="http://www.w3.org/2000/svg" viewBox="0 0 24 24">
    <g>
        <path fill="none" d="M0 0h24v24H0z"/>
        <path d="M20 7v14a1 1 0 0 1-1 1H5a1 1 0 0 1-1-1V7H2V5h20v2h-2zM6 7v13h12V7H6zm1-5h10v2H7V2zm4 8h2v7h-2v-7z"/>
    </g>
</svg>

<svg viewBox="0 0 24 24" fill="currentColor" xmlns="http://www.w3.org/2000/svg">
    <path d="M20 7V21C20 21.5523 19.5523 22 19 22H5C4.44772 22 4 21.5523 4 21V7H2V5H22V7H20ZM6 7V20H18V7H6ZM7 2H17V4H7V2ZM11 10H13V17H11V10Z"/>
</svg>
